X: 31428
T: Paddy Ryan's Dream
R: reel
M: 4/4
K: Aminor
cB|:AE E/E/E cABG|EGDG B,G,DB,|A,/A,/A, EA, CDEd|1 cAB^G A/A/A Ac/B/:|2 cAB^G A/A/A AB|
Aaa^g aecA|Bgg^f gdBG|Aaag ae^fd|e^cdB =cAAB|
Aaa^g aecA|Bgg^f gdBG|AcBd ced^f|ea^g^f ed^cB||

